X: 13317
T: Flanagan Brother's, The
R: jig
M: 6/8
K: Dmajor
|:DFA DFA|GBc dcB|Add cde|fdf ecA|
DFA DFA|GBc dcB|Add cde|fdc d2:|
e|:fdd dcd|edA ABc|cdd dcd|eaa a2g|
fdd dcd|edA ABc|dcA GFG|AFD D3:|
|:FBc dcB|fBc dcB|cff f2c|fgf edc|
FBc dcB|fBc dcB|cff fec|dBB BAG:|
AFA BGB|AFA fed|cBA gfe|dfe dcB|
AFA BGB|AFA fed|cBA gfe|dfe dcB|
AFA BGB|AFA fed|cBA gfe|dfe dcB|
AFA BGB|AFA fed|cBA gfe|dfe d3||

